actions/16/view-time-schedule-calculus.svg

<svg xmlns="http://www.w3.org/2000/svg" viewBox="0 0 16 16">
  <defs id="defs3051">
<style type="text/css" id="current-color-scheme">.ColorScheme-Text {color:#fcfcfc;}</style>
  </defs>
    <path
       style="fill:currentColor;fill-opacity:1;stroke:none" 
       d="m 2,2 c 0,0 0,8 0,10 0,2 2,2 2,2 H 8 V 13 H 4 C 4,13 3,13 3,12 3,11 3,5 3,5 h 10 v 2 h 1 V 2 H 12 V 4 H 10 V 2 H 6 V 4 H 4 V 2 Z M 4,6 V 9 H 5 V 8 H 7 V 9 H 8 V 6 H 7 V 7 H 5 V 6 Z m 5,2 v 2 1 3 h 5 V 8 Z m 1,1 h 3 v 1 h -3 z m 0,2 h 3 v 2 h -3 z"
     class="ColorScheme-Text"
       id="rect4449" />
</svg>

<svg xmlns="http://www.w3.org/2000/svg" viewBox="0 0 16 16">
  <defs id="defs3051">
    <style type="text/css" id="current-color-scheme">
      .ColorScheme-Text {
        color:#eff0f1;
      }
      </style>
  </defs>
    <path
       style="fill:currentColor;fill-opacity:1;stroke:none" 
       d="M 2 2 L 2 14 L 8 14 L 8 13 L 3 13 L 3 5 L 13 5 L 13 7 L 14 7 L 14 2 L 12 2 L 12 4 L 10 4 L 10 2 L 6 2 L 6 4 L 4 4 L 4 2 L 2 2 z M 4 6 L 4 9 L 5 9 L 5 8 L 7 8 L 7 9 L 8 9 L 8 6 L 7 6 L 7 7 L 5 7 L 5 6 L 4 6 z M 9 8 L 9 10 L 9 11 L 9 14 L 14 14 L 14 8 L 9 8 z M 10 9 L 13 9 L 13 10 L 10 10 L 10 9 z M 10 11 L 13 11 L 13 13 L 10 13 L 10 11 z "
     class="ColorScheme-Text"
       id="rect4449" />
</svg>
